docs/static/flags/en.svg

<svg enable-background="new 0 0 512.001 512.001" viewBox="0 0 512.001 512.001" xmlns="http://www.w3.org/2000/svg"><path d="m503.172 423.725h-494.344c-4.875 0-8.828-3.953-8.828-8.828v-317.793c0-4.875 3.953-8.828 8.828-8.828h494.345c4.875 0 8.828 3.953 8.828 8.828v317.793c-.001 4.875-3.954 8.828-8.829 8.828z" fill="#41479b"/><path d="m512 97.104c0-4.875-3.953-8.828-8.828-8.828h-39.495l-163.54 107.147v-107.147h-88.276v107.147l-163.539-107.147h-39.494c-4.875 0-8.828 3.953-8.828 8.828v22.831l140.309 91.927h-140.309v88.276h140.309l-140.309 91.928v22.831c0 4.875 3.953 8.828 8.828 8.828h39.495l163.54-107.147v107.147h88.276v-107.147l163.54 107.147h39.495c4.875 0 8.828-3.953 8.828-8.828v-22.831l-140.309-91.927h140.307v-88.276h-140.309l140.309-91.928z" fill="#f5f5f5"/><g fill="#ff4b55"><path d="m512 229.518h-229.517v-141.242h-52.966v141.242h-229.517v52.965h229.517v141.242h52.966v-141.242h229.517z"/><path d="m178.948 300.138-178.698 115.997c.625 4.263 4.14 7.59 8.577 7.59h12.159l190.39-123.586h-32.428z"/><path d="m346.388 300.138h-32.428l190.113 123.404c4.431-.472 7.928-4.09 7.928-8.646v-7.258z"/><path d="m0 106.849 161.779 105.014h32.428l-189.064-122.726c-3.02 1.403-5.143 4.418-5.143 7.967z"/><path d="m332.566 211.863 179.127-116.277c-.744-4.122-4.184-7.309-8.521-7.309h-12.647l-190.387 123.586z"/></g></svg>

<?xml version="1.0" encoding="iso-8859-1"?>
<!-- Generator: Adobe Illustrator 19.0.0, SVG Export Plug-In . SVG Version: 6.00 Build 0)  -->
<svg version="1.1" id="Layer_1" xmlns="http://www.w3.org/2000/svg" xmlns:xlink="http://www.w3.org/1999/xlink" x="0px" y="0px"
	 viewBox="0 0 512.001 512.001" style="enable-background:new 0 0 512.001 512.001;" xml:space="preserve">
<path style="fill:#41479B;" d="M503.172,423.725H8.828c-4.875,0-8.828-3.953-8.828-8.828V97.104c0-4.875,3.953-8.828,8.828-8.828
	h494.345c4.875,0,8.828,3.953,8.828,8.828v317.793C512,419.772,508.047,423.725,503.172,423.725z"/>
<path style="fill:#F5F5F5;" d="M512,97.104c0-4.875-3.953-8.828-8.828-8.828h-39.495l-163.54,107.147V88.276h-88.276v107.147
	L48.322,88.276H8.828C3.953,88.276,0,92.229,0,97.104v22.831l140.309,91.927H0v88.276h140.309L0,392.066v22.831
	c0,4.875,3.953,8.828,8.828,8.828h39.495l163.54-107.147v107.147h88.276V316.578l163.54,107.147h39.495
	c4.875,0,8.828-3.953,8.828-8.828v-22.831l-140.309-91.927H512v-88.276H371.691L512,119.935V97.104z"/>
<g>
	<polygon style="fill:#FF4B55;" points="512,229.518 282.483,229.518 282.483,88.276 229.517,88.276 229.517,229.518 0,229.518 
		0,282.483 229.517,282.483 229.517,423.725 282.483,423.725 282.483,282.483 512,282.483 	"/>
	<path style="fill:#FF4B55;" d="M178.948,300.138L0.25,416.135c0.625,4.263,4.14,7.59,8.577,7.59h12.159l190.39-123.586H178.948z"/>
	<path style="fill:#FF4B55;" d="M346.388,300.138H313.96l190.113,123.404c4.431-0.472,7.928-4.09,7.928-8.646v-7.258
		L346.388,300.138z"/>
	<path style="fill:#FF4B55;" d="M0,106.849l161.779,105.014h32.428L5.143,89.137C2.123,90.54,0,93.555,0,97.104V106.849z"/>
	<path style="fill:#FF4B55;" d="M332.566,211.863L511.693,95.586c-0.744-4.122-4.184-7.309-8.521-7.309h-12.647L300.138,211.863
		H332.566z"/>
</g>
<g>
</g>
<g>
</g>
<g>
</g>
<g>
</g>
<g>
</g>
<g>
</g>
<g>
</g>
<g>
</g>
<g>
</g>
<g>
</g>
<g>
</g>
<g>
</g>
<g>
</g>
<g>
</g>
<g>
</g>
</svg>
